public/images/app.svg

<?xml version="1.0" encoding="UTF-8"?>
<svg width="439px" height="623px" viewBox="0 0 439 623" version="1.1" xmlns="http://www.w3.org/2000/svg" xmlns:xlink="http://www.w3.org/1999/xlink">
    <!-- Generator: Sketch 46.2 (44496) - http://www.bohemiancoding.com/sketch -->
    <title>app</title>
    <desc>Created with Sketch.</desc>
    <defs>
        <filter x="-36.5%" y="-11.9%" width="157.1%" height="128.0%" filterUnits="objectBoundingBox" id="filter-1">
            <feOffset dx="-19.75" dy="10.5" in="SourceAlpha" result="shadowOffsetOuter1"></feOffset>
            <feGaussianBlur stdDeviation="20.5" in="shadowOffsetOuter1" result="shadowBlurOuter1"></feGaussianBlur>
            <feColorMatrix values="0 0 0 0 0   0 0 0 0 0   0 0 0 0 0  0 0 0 0.12 0" type="matrix" in="shadowBlurOuter1" result="shadowMatrixOuter1"></feColorMatrix>
            <feMerge>
                <feMergeNode in="shadowMatrixOuter1"></feMergeNode>
                <feMergeNode in="SourceGraphic"></feMergeNode>
            </feMerge>
        </filter>
        <rect id="path-2" x="0" y="0" width="250" height="510" rx="28"></rect>
        <filter x="-2.0%" y="-1.0%" width="104.0%" height="102.0%" filterUnits="objectBoundingBox" id="filter-4">
            <feMorphology radius="1" operator="erode" in="SourceAlpha" result="shadowSpreadInner1"></feMorphology>
            <feGaussianBlur stdDeviation="1.5" in="shadowSpreadInner1" result="shadowBlurInner1"></feGaussianBlur>
            <feOffset dx="0" dy="1" in="shadowBlurInner1" result="shadowOffsetInner1"></feOffset>
            <feComposite in="shadowOffsetInner1" in2="SourceAlpha" operator="arithmetic" k2="-1" k3="1" result="shadowInnerInner1"></feComposite>
            <feColorMatrix values="0 0 0 0 1   0 0 0 0 1   0 0 0 0 1  0 0 0 1 0" type="matrix" in="shadowInnerInner1" result="shadowMatrixInner1"></feColorMatrix>
            <feGaussianBlur stdDeviation="2" in="SourceAlpha" result="shadowBlurInner2"></feGaussianBlur>
            <feOffset dx="0" dy="-6" in="shadowBlurInner2" result="shadowOffsetInner2"></feOffset>
            <feComposite in="shadowOffsetInner2" in2="SourceAlpha" operator="arithmetic" k2="-1" k3="1" result="shadowInnerInner2"></feComposite>
            <feColorMatrix values="0 0 0 0 0   0 0 0 0 0   0 0 0 0 0  0 0 0 0.08 0" type="matrix" in="shadowInnerInner2" result="shadowMatrixInner2"></feColorMatrix>
            <feGaussianBlur stdDeviation="1.5" in="SourceAlpha" result="shadowBlurInner3"></feGaussianBlur>
            <feOffset dx="0" dy="1" in="shadowBlurInner3" result="shadowOffsetInner3"></feOffset>
            <feComposite in="shadowOffsetInner3" in2="SourceAlpha" operator="arithmetic" k2="-1" k3="1" result="shadowInnerInner3"></feComposite>
            <feColorMatrix values="0 0 0 0 0   0 0 0 0 0   0 0 0 0 0  0 0 0 0.12 0" type="matrix" in="shadowInnerInner3" result="shadowMatrixInner3"></feColorMatrix>
            <feMerge>
                <feMergeNode in="shadowMatrixInner1"></feMergeNode>
                <feMergeNode in="shadowMatrixInner2"></feMergeNode>
                <feMergeNode in="shadowMatrixInner3"></feMergeNode>
            </feMerge>
        </filter>
        <linearGradient x1="50%" y1="0%" x2="50%" y2="100%" id="linearGradient-5">
            <stop stop-color="#F3F4F6" offset="0%"></stop>
            <stop stop-color="#FFFFFF" offset="100%"></stop>
        </linearGradient>
        <rect id="path-6" x="0" y="0" width="220" height="394.10639" rx="2"></rect>
        <rect id="path-8" x="-27.8303157" y="-12.7143556" width="260" height="44"></rect>
        <filter x="-1.5%" y="-4.5%" width="103.1%" height="118.2%" filterUnits="objectBoundingBox" id="filter-9">
            <feOffset dx="0" dy="2" in="SourceAlpha" result="shadowOffsetOuter1"></feOffset>
            <feGaussianBlur stdDeviation="1" in="shadowOffsetOuter1" result="shadowBlurOuter1"></feGaussianBlur>
            <feColorMatrix values="0 0 0 0 0   0 0 0 0 0   0 0 0 0 0  0 0 0 0.08 0" type="matrix" in="shadowBlurOuter1"></feColorMatrix>
        </filter>
        <rect id="path-10" x="0" y="0" width="200" height="56" rx="4"></rect>
        <filter x="-1.8%" y="-4.5%" width="103.5%" height="112.5%" filterUnits="objectBoundingBox" id="filter-11">
            <feOffset dx="0" dy="1" in="SourceAlpha" result="shadowOffsetOuter1"></feOffset>
            <feGaussianBlur stdDeviation="1" in="shadowOffsetOuter1" result="shadowBlurOuter1"></feGaussianBlur>
            <feColorMatrix values="0 0 0 0 0.321568627   0 0 0 0 0.337254902   0 0 0 0 0.349019608  0 0 0 0.12 0" type="matrix" in="shadowBlurOuter1"></feColorMatrix>
        </filter>
        <rect id="path-12" x="0" y="0" width="200" height="56" rx="4"></rect>
        <filter x="-1.8%" y="-4.5%" width="103.5%" height="112.5%" filterUnits="objectBoundingBox" id="filter-13">
            <feOffset dx="0" dy="1" in="SourceAlpha" result="shadowOffsetOuter1"></feOffset>
            <feGaussianBlur stdDeviation="1" in="shadowOffsetOuter1" result="shadowBlurOuter1"></feGaussianBlur>
            <feColorMatrix values="0 0 0 0 0.321568627   0 0 0 0 0.337254902   0 0 0 0 0.349019608  0 0 0 0.12 0" type="matrix" in="shadowBlurOuter1"></feColorMatrix>
        </filter>
        <rect id="path-14" x="0" y="0" width="200" height="56" rx="4"></rect>
        <filter x="-1.8%" y="-4.5%" width="103.5%" height="112.5%" filterUnits="objectBoundingBox" id="filter-15">
            <feOffset dx="0" dy="1" in="SourceAlpha" result="shadowOffsetOuter1"></feOffset>
            <feGaussianBlur stdDeviation="1" in="shadowOffsetOuter1" result="shadowBlurOuter1"></feGaussianBlur>
            <feColorMatrix values="0 0 0 0 0.321568627   0 0 0 0 0.337254902   0 0 0 0 0.349019608  0 0 0 0.12 0" type="matrix" in="shadowBlurOuter1"></feColorMatrix>
        </filter>
        <rect id="path-16" x="0" y="0" width="200" height="56" rx="4"></rect>
        <filter x="-1.8%" y="-4.5%" width="103.5%" height="112.5%" filterUnits="objectBoundingBox" id="filter-17">
            <feOffset dx="0" dy="1" in="SourceAlpha" result="shadowOffsetOuter1"></feOffset>
            <feGaussianBlur stdDeviation="1" in="shadowOffsetOuter1" result="shadowBlurOuter1"></feGaussianBlur>
            <feColorMatrix values="0 0 0 0 0.321568627   0 0 0 0 0.337254902   0 0 0 0 0.349019608  0 0 0 0.12 0" type="matrix" in="shadowBlurOuter1"></feColorMatrix>
        </filter>
        <rect id="path-18" x="0" y="0" width="200" height="56" rx="4"></rect>
        <filter x="-1.8%" y="-4.5%" width="103.5%" height="112.5%" filterUnits="objectBoundingBox" id="filter-19">
            <feOffset dx="0" dy="1" in="SourceAlpha" result="shadowOffsetOuter1"></feOffset>
            <feGaussianBlur stdDeviation="1" in="shadowOffsetOuter1" result="shadowBlurOuter1"></feGaussianBlur>
            <feColorMatrix values="0 0 0 0 0.321568627   0 0 0 0 0.337254902   0 0 0 0 0.349019608  0 0 0 0.12 0" type="matrix" in="shadowBlurOuter1"></feColorMatrix>
        </filter>
        <rect id="path-20" x="0" y="0" width="200" height="56" rx="4"></rect>
        <filter x="-1.8%" y="-4.5%" width="103.5%" height="112.5%" filterUnits="objectBoundingBox" id="filter-21">
            <feOffset dx="0" dy="1" in="SourceAlpha" result="shadowOffsetOuter1"></feOffset>
            <feGaussianBlur stdDeviation="1" in="shadowOffsetOuter1" result="shadowBlurOuter1"></feGaussianBlur>
            <feColorMatrix values="0 0 0 0 0.321568627   0 0 0 0 0.337254902   0 0 0 0 0.349019608  0 0 0 0.12 0" type="matrix" in="shadowBlurOuter1"></feColorMatrix>
        </filter>
    </defs>
    <g id="Page-1" stroke="none" stroke-width="1" fill="none" fill-rule="evenodd" opacity="0.985450634">
        <g id="Artboard-Copy" transform="translate(-856.000000, -203.000000)">
            <g id="app" filter="url(#filter-1)" transform="translate(1095.739585, 504.663466) rotate(-15.000000) translate(-1095.739585, -504.663466) translate(970.739585, 249.663466)">
                <mask id="mask-3" fill="white">
                    <use xlink:href="#path-2"></use>
                </mask>
                <g id="iPhone-Body">
                    <use fill="#FEFEFE" fill-rule="evenodd" xlink:href="#path-2"></use>
                    <use fill="black" fill-opacity="1" filter="url(#filter-4)" xlink:href="#path-2"></use>
                </g>
                <g id="Group-2" mask="url(#mask-3)">
                    <g transform="translate(107.252869, 16.250435)">
                        <circle id="Oval-2" fill="#EEEEEE" cx="19.5005216" cy="3.25008693" r="3.25008693"></circle>
                        <rect id="Rectangle-8" fill="#989CA2" x="0" y="18.6879999" width="39.0010432" height="3.25008693" rx="1.62504347"></rect>
                    </g>
                </g>
                <path d="M126.149497,499.871074 C116.359739,499.871074 108.423572,491.934907 108.423572,482.145149 C108.423572,472.355391 116.359739,464.419225 126.149497,464.419225 C135.939255,464.419225 143.875421,472.355391 143.875421,482.145149 C143.875421,491.934907 135.939255,499.871074 126.149497,499.871074 Z M126.149497,497.803049 C134.797116,497.803049 141.807397,490.792769 141.807397,482.145149 C141.807397,473.49753 134.797116,466.487249 126.149497,466.487249 C117.501877,466.487249 110.491597,473.49753 110.491597,482.145149 C110.491597,490.792769 117.501877,497.803049 126.149497,497.803049 Z" id="Home" fill="url(#linearGradient-5)" style="mix-blend-mode: multiply;"></path>
                <g id="screen" transform="translate(11.000000, 51.000000)">
                    <mask id="mask-7" fill="white">
                        <use xlink:href="#path-6"></use>
                    </mask>
                    <g id="Mask-for-Screen">
                        <use fill="#F0F2F5" fill-rule="evenodd" xlink:href="#path-6"></use>
                        <rect stroke-opacity="0.04" stroke="#000000" stroke-width="2.8" x="-1.4" y="-1.4" width="222.8" height="396.90639" rx="2"></rect>
                    </g>
                    <g id="Rectangle-2" mask="url(#mask-7)">
                        <use fill="black" fill-opacity="1" filter="url(#filter-9)" xlink:href="#path-8"></use>
                        <use fill="#FFFFFF" fill-rule="evenodd" xlink:href="#path-8"></use>
                    </g>
                    <g id="Group-5" mask="url(#mask-7)">
                        <g transform="translate(12.569608, 41.864905)">
                            <g id="Rectangle-10-Copy">
                                <use fill="black" fill-opacity="1" filter="url(#filter-11)" xlink:href="#path-10"></use>
                                <use fill="#FFFFFF" fill-rule="evenodd" xlink:href="#path-10"></use>
                            </g>
                            <g id="Group-6" stroke-width="1" fill-rule="evenodd" transform="translate(14.000000, 13.000000)">
                                <circle id="Oval-6" fill="#F0F2F5" cx="15" cy="15" r="15"></circle>
                                <rect id="Rectangle-11" fill="#F0F2F5" x="38" y="4" width="131" height="6" rx="3"></rect>
                                <rect id="Rectangle-11-Copy" fill="#F0F2F5" x="38" y="18" width="83" height="6" rx="3"></rect>
                            </g>
                        </g>
                    </g>
                    <g id="Group-5" mask="url(#mask-7)">
                        <g transform="translate(12.569608, 105.864905)">
                            <g id="Rectangle-10-Copy">
                                <use fill="black" fill-opacity="1" filter="url(#filter-13)" xlink:href="#path-12"></use>
                                <use fill="#FFFFFF" fill-rule="evenodd" xlink:href="#path-12"></use>
                            </g>
                            <g id="Group-6" stroke-width="1" fill-rule="evenodd" transform="translate(14.000000, 13.000000)">
                                <circle id="Oval-6" fill="#F0F2F5" cx="15" cy="15" r="15"></circle>
                                <rect id="Rectangle-11" fill="#F0F2F5" x="38" y="4" width="131" height="6" rx="3"></rect>
                                <rect id="Rectangle-11-Copy" fill="#F0F2F5" x="38" y="18" width="83" height="6" rx="3"></rect>
                            </g>
                        </g>
                    </g>
                    <g id="Group-5" mask="url(#mask-7)">
                        <g transform="translate(12.569608, 169.864905)">
                            <g id="Rectangle-10-Copy">
                                <use fill="black" fill-opacity="1" filter="url(#filter-15)" xlink:href="#path-14"></use>
                                <use fill="#FFFFFF" fill-rule="evenodd" xlink:href="#path-14"></use>
                            </g>
                            <g id="Group-6" stroke-width="1" fill-rule="evenodd" transform="translate(14.000000, 13.000000)">
                                <circle id="Oval-6" fill="#F0F2F5" cx="15" cy="15" r="15"></circle>
                                <rect id="Rectangle-11" fill="#F0F2F5" x="38" y="4" width="131" height="6" rx="3"></rect>
                                <rect id="Rectangle-11-Copy" fill="#F0F2F5" x="38" y="18" width="83" height="6" rx="3"></rect>
                            </g>
                        </g>
                    </g>
                    <g id="Group-5" mask="url(#mask-7)">
                        <g transform="translate(12.569608, 233.864905)">
                            <g id="Rectangle-10-Copy">
                                <use fill="black" fill-opacity="1" filter="url(#filter-17)" xlink:href="#path-16"></use>
                                <use fill="#FFFFFF" fill-rule="evenodd" xlink:href="#path-16"></use>
                            </g>
                            <g id="Group-6" stroke-width="1" fill-rule="evenodd" transform="translate(14.000000, 13.000000)">
                                <circle id="Oval-6" fill="#F0F2F5" cx="15" cy="15" r="15"></circle>
                                <rect id="Rectangle-11" fill="#F0F2F5" x="38" y="4" width="131" height="6" rx="3"></rect>
                                <rect id="Rectangle-11-Copy" fill="#F0F2F5" x="38" y="18" width="83" height="6" rx="3"></rect>
                            </g>
                        </g>
                    </g>
                    <g id="Group-5" mask="url(#mask-7)">
                        <g transform="translate(12.569608, 297.864905)">
                            <g id="Rectangle-10-Copy">
                                <use fill="black" fill-opacity="1" filter="url(#filter-19)" xlink:href="#path-18"></use>
                                <use fill="#FFFFFF" fill-rule="evenodd" xlink:href="#path-18"></use>
                            </g>
                            <g id="Group-6" stroke-width="1" fill-rule="evenodd" transform="translate(14.000000, 13.000000)">
                                <circle id="Oval-6" fill="#F0F2F5" cx="15" cy="15" r="15"></circle>
                                <rect id="Rectangle-11" fill="#F0F2F5" x="38" y="4" width="131" height="6" rx="3"></rect>
                                <rect id="Rectangle-11-Copy" fill="#F0F2F5" x="38" y="18" width="83" height="6" rx="3"></rect>
                            </g>
                        </g>
                    </g>
                    <g id="Group-5" mask="url(#mask-7)">
                        <g transform="translate(12.569608, 361.864905)">
                            <g id="Rectangle-10-Copy">
                                <use fill="black" fill-opacity="1" filter="url(#filter-21)" xlink:href="#path-20"></use>
                                <use fill="#FFFFFF" fill-rule="evenodd" xlink:href="#path-20"></use>
                            </g>
                            <g id="Group-6" stroke-width="1" fill-rule="evenodd" transform="translate(14.000000, 13.000000)">
                                <circle id="Oval-6" fill="#F0F2F5" cx="15" cy="15" r="15"></circle>
                                <rect id="Rectangle-11" fill="#F0F2F5" x="38" y="4" width="131" height="6" rx="3"></rect>
                                <rect id="Rectangle-11-Copy" fill="#F0F2F5" x="38" y="18" width="83" height="6" rx="3"></rect>
                            </g>
                        </g>
                    </g>
                </g>
            </g>
        </g>
    </g>
</svg>

<svg width="439" height="623" viewBox="0 0 439 623" xmlns="http://www.w3.org/2000/svg" xmlns:xlink="http://www.w3.org/1999/xlink"><title>app</title><defs><filter x="-36.5%" y="-11.9%" width="157.1%" height="128%" filterUnits="objectBoundingBox" id="a"><feOffset dx="-19.75" dy="10.5" in="SourceAlpha" result="shadowOffsetOuter1"/><feGaussianBlur stdDeviation="20.5" in="shadowOffsetOuter1" result="shadowBlurOuter1"/><feColorMatrix values="0 0 0 0 0 0 0 0 0 0 0 0 0 0 0 0 0 0 0.12 0" in="shadowBlurOuter1" result="shadowMatrixOuter1"/><feMerge><feMergeNode in="shadowMatrixOuter1"/><feMergeNode in="SourceGraphic"/></feMerge></filter><rect id="b" width="250" height="510" rx="28"/><filter x="-2%" y="-1%" width="104%" height="102%" filterUnits="objectBoundingBox" id="c"><feMorphology radius="1" in="SourceAlpha" result="shadowSpreadInner1"/><feGaussianBlur stdDeviation="1.5" in="shadowSpreadInner1" result="shadowBlurInner1"/><feOffset dy="1" in="shadowBlurInner1" result="shadowOffsetInner1"/><feComposite in="shadowOffsetInner1" in2="SourceAlpha" operator="arithmetic" k2="-1" k3="1" result="shadowInnerInner1"/><feColorMatrix values="0 0 0 0 1 0 0 0 0 1 0 0 0 0 1 0 0 0 1 0" in="shadowInnerInner1" result="shadowMatrixInner1"/><feGaussianBlur stdDeviation="2" in="SourceAlpha" result="shadowBlurInner2"/><feOffset dy="-6" in="shadowBlurInner2" result="shadowOffsetInner2"/><feComposite in="shadowOffsetInner2" in2="SourceAlpha" operator="arithmetic" k2="-1" k3="1" result="shadowInnerInner2"/><feColorMatrix values="0 0 0 0 0 0 0 0 0 0 0 0 0 0 0 0 0 0 0.08 0" in="shadowInnerInner2" result="shadowMatrixInner2"/><feGaussianBlur stdDeviation="1.5" in="SourceAlpha" result="shadowBlurInner3"/><feOffset dy="1" in="shadowBlurInner3" result="shadowOffsetInner3"/><feComposite in="shadowOffsetInner3" in2="SourceAlpha" operator="arithmetic" k2="-1" k3="1" result="shadowInnerInner3"/><feColorMatrix values="0 0 0 0 0 0 0 0 0 0 0 0 0 0 0 0 0 0 0.12 0" in="shadowInnerInner3" result="shadowMatrixInner3"/><feMerge><feMergeNode in="shadowMatrixInner1"/><feMergeNode in="shadowMatrixInner2"/><feMergeNode in="shadowMatrixInner3"/></feMerge></filter><linearGradient x1="50%" y1="0%" x2="50%" y2="100%" id="e"><stop stop-color="#F3F4F6" offset="0%"/><stop stop-color="#FFF" offset="100%"/></linearGradient><rect id="f" width="220" height="394.11" rx="2"/><path id="i" d="M-27.83-12.7h260v44h-260z"/><filter x="-1.5%" y="-4.5%" width="103.1%" height="118.2%" filterUnits="objectBoundingBox" id="h"><feOffset dy="2" in="SourceAlpha" result="shadowOffsetOuter1"/><feGaussianBlur stdDeviation="1" in="shadowOffsetOuter1" result="shadowBlurOuter1"/><feColorMatrix values="0 0 0 0 0 0 0 0 0 0 0 0 0 0 0 0 0 0 0.08 0" in="shadowBlurOuter1"/></filter><rect id="k" width="200" height="56" rx="4"/><filter x="-1.8%" y="-4.5%" width="103.5%" height="112.5%" filterUnits="objectBoundingBox" id="j"><feOffset dy="1" in="SourceAlpha" result="shadowOffsetOuter1"/><feGaussianBlur stdDeviation="1" in="shadowOffsetOuter1" result="shadowBlurOuter1"/><feColorMatrix values="0 0 0 0 0.321568627 0 0 0 0 0.337254902 0 0 0 0 0.349019608 0 0 0 0.12 0" in="shadowBlurOuter1"/></filter><rect id="m" width="200" height="56" rx="4"/><filter x="-1.8%" y="-4.5%" width="103.5%" height="112.5%" filterUnits="objectBoundingBox" id="l"><feOffset dy="1" in="SourceAlpha" result="shadowOffsetOuter1"/><feGaussianBlur stdDeviation="1" in="shadowOffsetOuter1" result="shadowBlurOuter1"/><feColorMatrix values="0 0 0 0 0.321568627 0 0 0 0 0.337254902 0 0 0 0 0.349019608 0 0 0 0.12 0" in="shadowBlurOuter1"/></filter><rect id="o" width="200" height="56" rx="4"/><filter x="-1.8%" y="-4.5%" width="103.5%" height="112.5%" filterUnits="objectBoundingBox" id="n"><feOffset dy="1" in="SourceAlpha" result="shadowOffsetOuter1"/><feGaussianBlur stdDeviation="1" in="shadowOffsetOuter1" result="shadowBlurOuter1"/><feColorMatrix values="0 0 0 0 0.321568627 0 0 0 0 0.337254902 0 0 0 0 0.349019608 0 0 0 0.12 0" in="shadowBlurOuter1"/></filter><rect id="q" width="200" height="56" rx="4"/><filter x="-1.8%" y="-4.5%" width="103.5%" height="112.5%" filterUnits="objectBoundingBox" id="p"><feOffset dy="1" in="SourceAlpha" result="shadowOffsetOuter1"/><feGaussianBlur stdDeviation="1" in="shadowOffsetOuter1" result="shadowBlurOuter1"/><feColorMatrix values="0 0 0 0 0.321568627 0 0 0 0 0.337254902 0 0 0 0 0.349019608 0 0 0 0.12 0" in="shadowBlurOuter1"/></filter><rect id="s" width="200" height="56" rx="4"/><filter x="-1.8%" y="-4.5%" width="103.5%" height="112.5%" filterUnits="objectBoundingBox" id="r"><feOffset dy="1" in="SourceAlpha" result="shadowOffsetOuter1"/><feGaussianBlur stdDeviation="1" in="shadowOffsetOuter1" result="shadowBlurOuter1"/><feColorMatrix values="0 0 0 0 0.321568627 0 0 0 0 0.337254902 0 0 0 0 0.349019608 0 0 0 0.12 0" in="shadowBlurOuter1"/></filter><rect id="u" width="200" height="56" rx="4"/><filter x="-1.8%" y="-4.5%" width="103.5%" height="112.5%" filterUnits="objectBoundingBox" id="t"><feOffset dy="1" in="SourceAlpha" result="shadowOffsetOuter1"/><feGaussianBlur stdDeviation="1" in="shadowOffsetOuter1" result="shadowBlurOuter1"/><feColorMatrix values="0 0 0 0 0.321568627 0 0 0 0 0.337254902 0 0 0 0 0.349019608 0 0 0 0.12 0" in="shadowBlurOuter1"/></filter></defs><g filter="url(#a)" transform="rotate(-15 359.592 -157.435)" fill="none" fill-rule="evenodd" opacity=".99"><mask id="d" fill="#fff"><use xlink:href="#b"/></mask><use fill="#FEFEFE" xlink:href="#b"/><use fill="#000" filter="url(#c)" xlink:href="#b"/><g transform="translate(107.253 16.25)" mask="url(#d)"><circle fill="#EEE" cx="19.5" cy="3.25" r="3.25"/><rect fill="#989CA2" y="18.69" width="39" height="3.25" rx="1.63"/></g><path d="M126.15 499.87c-9.8 0-17.73-7.94-17.73-17.72 0-9.8 7.94-17.73 17.73-17.73 9.8 0 17.73 7.94 17.73 17.73 0 9.78-7.94 17.72-17.73 17.72zm0-2.07c8.65 0 15.66-7 15.66-15.65s-7-15.66-15.65-15.66-15.66 7-15.66 15.65c0 8.64 7 15.65 15.65 15.65z" fill="url(#e)" style="mix-blend-mode:multiply"/><g transform="translate(11 51)"><mask id="g" fill="#fff"><use xlink:href="#f"/></mask><use fill="#F0F2F5" xlink:href="#f"/><rect stroke-opacity=".04" stroke="#000" stroke-width="2.8" x="-1.4" y="-1.4" width="222.8" height="396.91" rx="2"/><g mask="url(#g)"><use fill="#000" filter="url(#h)" xlink:href="#i"/><use fill="#FFF" xlink:href="#i"/></g><g mask="url(#g)"><g transform="translate(12.57 41.865)"><use fill="#000" filter="url(#j)" xlink:href="#k"/><use fill="#FFF" xlink:href="#k"/></g><g transform="translate(26.57 54.865)" fill="#F0F2F5"><circle cx="15" cy="15" r="15"/><rect x="38" y="4" width="131" height="6" rx="3"/><rect x="38" y="18" width="83" height="6" rx="3"/></g></g><g mask="url(#g)"><g transform="translate(12.57 105.865)"><use fill="#000" filter="url(#l)" xlink:href="#m"/><use fill="#FFF" xlink:href="#m"/></g><g transform="translate(26.57 118.865)" fill="#F0F2F5"><circle cx="15" cy="15" r="15"/><rect x="38" y="4" width="131" height="6" rx="3"/><rect x="38" y="18" width="83" height="6" rx="3"/></g></g><g mask="url(#g)"><g transform="translate(12.57 169.865)"><use fill="#000" filter="url(#n)" xlink:href="#o"/><use fill="#FFF" xlink:href="#o"/></g><g transform="translate(26.57 182.865)" fill="#F0F2F5"><circle cx="15" cy="15" r="15"/><rect x="38" y="4" width="131" height="6" rx="3"/><rect x="38" y="18" width="83" height="6" rx="3"/></g></g><g mask="url(#g)"><g transform="translate(12.57 233.865)"><use fill="#000" filter="url(#p)" xlink:href="#q"/><use fill="#FFF" xlink:href="#q"/></g><g transform="translate(26.57 246.865)" fill="#F0F2F5"><circle cx="15" cy="15" r="15"/><rect x="38" y="4" width="131" height="6" rx="3"/><rect x="38" y="18" width="83" height="6" rx="3"/></g></g><g mask="url(#g)"><g transform="translate(12.57 297.865)"><use fill="#000" filter="url(#r)" xlink:href="#s"/><use fill="#FFF" xlink:href="#s"/></g><g transform="translate(26.57 310.865)" fill="#F0F2F5"><circle cx="15" cy="15" r="15"/><rect x="38" y="4" width="131" height="6" rx="3"/><rect x="38" y="18" width="83" height="6" rx="3"/></g></g><g mask="url(#g)"><g transform="translate(12.57 361.865)"><use fill="#000" filter="url(#t)" xlink:href="#u"/><use fill="#FFF" xlink:href="#u"/></g><g transform="translate(26.57 374.865)" fill="#F0F2F5"><circle cx="15" cy="15" r="15"/><rect x="38" y="4" width="131" height="6" rx="3"/><rect x="38" y="18" width="83" height="6" rx="3"/></g></g></g></g></svg>
